X:195
T:Head Over Heels
C:Ron Inscore (Kenny & Amanda Smith Band, Pulaski, VA 12-5-98)
N:Transcribed by Steve Keating
R:bluegrass
L:1/8
Q:1/4=235
M:4/4
K:A
z2 E2 EF A2 | "A"B=c ^cf e=c ^ce | =cB AF EF A2 | {=c}^ce ec ea fe | =c^c AF EF AA | 
=c^c a2 =g2 ag | "E"ea =gb a2 a=c' | "A"a=g ag ^de ge | "A7"=g^d =d=c dc A=G | 
"D"D=F =G^G A=c d^d | e2 [=gd]e g2 [gd]e | "A"a2 [=c'2e2] [a2e2] (3=gag | ^de =gd eg fg | 
af =g2 de ed | "E"ea e^d =de =cc | "A"A=G EG AG BG | =cc (3BcB =Gc AG | A=G EG ^D/E/D =C^C | 
DC A,6 | z8 | z8 | 


